svg/white/$pac.svg

<svg width="32" height="32" viewBox="0 0 32 32" version="1.1" xmlns="http://www.w3.org/2000/svg" xmlns:xlink="http://www.w3.org/1999/xlink"><title>svg/white/$pac</title><desc>Created with Sketch.</desc><g id="white/$pac" stroke="none" stroke-width="1" fill="none" fill-rule="evenodd"><path d="M16,32 C7.163444,32 0,24.836556 0,16 C0,7.163444 7.163444,0 16,0 C24.836556,0 32,7.163444 32,16 C32,24.836556 24.836556,32 16,32 Z M15.9351351,4 C9.34234804,4.00119424 3.99880623,9.34667224 4.00000039,15.9394593 C4.00119456,22.5322464 9.3466725,27.8757883 15.9394596,27.8745942 C22.5322467,27.8734001 27.8757886,22.5279222 27.8745946,15.9351351 C27.8740212,12.769167 26.6157953,9.73309652 24.3767123,7.49482449 C22.1376293,5.25655246 19.1011032,3.99942651 15.9351351,4 Z M11.0875676,9.23027027 C11.088136,9.1975825 11.1016689,9.16645995 11.1251881,9.14375177 C11.1487073,9.12104359 11.1802854,9.10861069 11.212973,9.10918919 L16.1859459,9.10918919 C17.2293038,9.08998856 18.2636884,9.30499281 19.212973,9.73837838 C19.3939371,9.82614245 19.5700475,9.92358061 19.7405405,10.0302703 L16.5037838,11.8832432 L14.8151351,11.8832432 C14.7824474,11.8838117 14.7513248,11.8973446 14.7286166,11.9208638 C14.7059085,11.944383 14.6934756,11.9759611 14.6940541,12.0086486 L14.6940541,12.9405405 L11.0875676,15.027027 L11.0875676,9.23027027 Z M9.74918919,19.7081081 L7.58702703,17.5243243 L14.707027,13.4162162 L14.707027,16.0778378 C14.7075955,16.1105256 14.7211284,16.1416482 14.7446476,16.1643563 C14.7681667,16.1870645 14.7997448,16.1994974 14.8324324,16.1989189 L15.8486486,16.1989189 L9.75567568,19.7081081 L9.74918919,19.7081081 Z M20.4108108,17.6778378 C19.3672072,18.5499099 17.9344144,18.9859459 16.1124324,18.9859459 L14.8151351,18.9859459 C14.7470698,18.9859459 14.6918919,19.0411238 14.6918919,19.1091892 L14.6918919,21.7967568 L12.8821622,22.8389189 L11.1913514,23.8162162 L11.0854054,23.8767568 L11.0854054,19.4205405 L16.6875676,16.1967568 C17.1664963,16.1823134 17.6253449,16.0010682 17.9848649,15.6843243 C18.1125298,15.5574788 18.21975,15.411601 18.3027027,15.2518919 L21.8810811,13.1805405 C21.940975,13.5086647 21.9706488,13.8415906 21.9697297,14.1751351 C21.9740541,15.6381982 21.4544144,16.8057658 20.4108108,17.6778378 Z M18.4908108,14.6594595 C18.5145542,14.5056281 18.5268402,14.3502458 18.5275676,14.1945946 C18.5578678,13.5858327 18.3570774,12.9880952 17.9654054,12.5210811 C17.7455925,12.2771323 17.4639596,12.0970964 17.1502703,12 L22.1232432,9.12864865 L24.3048649,11.3124324 L18.4908108,14.6594595 Z" id="Combined-Shape" fill="#FFF" fill-rule="nonzero"/></g></svg>

<svg width="32" height="32" viewBox="0 0 32 32" xmlns="http://www.w3.org/2000/svg"><path d="M16 32C7.163 32 0 24.837 0 16S7.163 0 16 0s16 7.163 16 16-7.163 16-16 16zm-.065-28C9.342 4.001 4 9.347 4 15.94c.001 6.592 5.347 11.936 11.94 11.935 6.592-.002 11.936-5.347 11.935-11.94A11.937 11.937 0 0 0 15.935 4zm-4.847 5.23a.123.123 0 0 1 .125-.12h4.973a6.98 6.98 0 0 1 3.027.628c.18.088.357.186.528.292l-3.237 1.853h-1.689a.123.123 0 0 0-.12.126v.932l-3.607 2.086V9.23zM9.749 19.708l-2.162-2.184 7.12-4.108v2.662a.123.123 0 0 0 .125.12h1.017l-6.093 3.51h-.007zm10.662-2.03c-1.044.872-2.477 1.308-4.299 1.308h-1.297a.123.123 0 0 0-.123.123v2.688l-1.81 1.042-1.69.977-.107.06v-4.455l5.603-3.224a2.056 2.056 0 0 0 1.297-.513 1.74 1.74 0 0 0 .318-.432l3.578-2.071c.06.328.09.66.089.994.004 1.463-.516 2.63-1.56 3.503zm-1.92-3.019c.024-.153.036-.309.037-.464a2.417 2.417 0 0 0-.563-1.674A1.823 1.823 0 0 0 17.15 12l4.973-2.871 2.182 2.183-5.814 3.347z" fill="#FFF"/></svg>
